public/avatar/hat/182.svg

<svg xmlns:xlink="http://www.w3.org/1999/xlink" height="92.9" width="100.7" xmlns="http://www.w3.org/2000/svg"><use height="33" transform="translate(18.2 44.25)" width="42.3" xlink:href="#a"/><defs><g id="a" fill-rule="evenodd"><path d="M9.3-3q3.2.95 5.1 2.9 2.25 2.35 2.25 5.55l-.3 2.1.05.05q5.45 6.25 5.45 10.15 0 3.25-2 5.55l-4.1 2.8-.9-4.15q-.3-3.05-1.15-5.8L12.85 14 11 16.05l-1.95 1.8.55-2.6.25-2.4q-.3-9.1-5.4-9.95L.2 1.85Q-.4 3.4-3.85 5.4l-3.6 2.3q-2.75 1.9-2.75 4.7l.25 1.5.45 1.2h-1.25q-1.35-.15-2.4-1.55-3.75 6.55-2.65 13.95l-3.75-3.85q-2-4.4.55-9.65l2.45-4.35q.65-1.05.65-1.55l-.05-1.1q-.55-5.05 2.65-7.5 4.15-3.3 9.9-2.75Q3.15-7.85 9.3-3" fill="#1a171b" transform="translate(20.45 5.5)"/><path d="M14.7 16.25Q10.65.55-.3.55q-3.95 0-8.2 4.5-3.75 3.95-6.3 9.65-2.05 4.55-2.5 9.8l-1.6-2.2q-1.75-3.2.55-8 3.1-4.65 3.2-6.25l-.15-3.6q.25-2.65 2.4-4.35 3.95-3.15 9.6-2.55 8.25-5.85 15.5 3.8.8 1.05 1.75 3.55.95 2.35 1.7 3.2 10 11.65.3 17 .5-2.1-1.25-8.85" fill="#381719" transform="translate(20.45 5.5)"/><path d="M13.65.4q2.9 3.05 1.7 7.4-1.1 3.95-5 7.55.5-2.5 0-5.65-.5-3.3-1.85-5.2-1.05-1.55-3.95-2.35L-.4.8q-.15 1.4-2.25 2.75l-5.4 3.35q-4.45 3.1-2.8 7.25-2.95 0-2.8-5.65.05-3.95 4.9-7.1 4.45-2.9 7.6-2.3 2.25-2 6.9-1.85 5.05.15 7.9 3.15" fill="#fff" transform="translate(20.45 5.5)"/><path d="m-13.4 11.9-.15 1.2q-.8-1.4-.8-3.95 0-2.35.55-3.65.8-1.8 3.2-3.55Q-7.3-.5-2.9-.9-9.8.6-12.65 5.15q-1.55 2.4-.75 6.75" fill="#1a171b" transform="translate(20.45 5.5)"/><path d="m2.9-1.55 5.65.15q.3.15-2.05.75L9.35.3q3 1.35 3.7 3.65Q10.8 2.7 9.4 2.65q3.85 3.9.95 12.55Q12 8.4 8.2 3L-.55.5q-.05.65-1.4 2.5-6 2.9-8.45 6.25-.9 1.25-.45 4.9-.6-2.35-.15-4.7.3-1.5 3.95-4.7l3.6-2.95-4.8.95q.95-1.7 3.9-2.9L-1.6-1l4.5-.55" fill="#dbdfdf" transform="translate(20.45 5.5)"/><path d="m7.6-1.25-5.85.7 3.5.25q3.9.6 5.95 2.5Q10 1.25 5.7.65q-6.25-.85-.25.3 3.6.7 4.95 6.05 1.25 4.8-.05 8.35Q11.45 3.75 4 2.05L-.4.8q0 1.5-2.85 3.1l-5.9 3.85 5.1-4.1Q-.65.6-2.1.65q-2.2.1-4.45 1.2.65-1.05 3.1-2l2.3-.75 8.75-.35" fill="#aeb9bc" transform="translate(20.45 5.5)"/><path d="M19.15 22.45q-1.7-5-4.75-6.75l-.75-2.55 1.35-2.3q4.4 4.6 5 7.85-1.3-2-2.85-3.1l-1.25-.75 1.35 1.55q1.45 2.35 1.9 6.05m-33.45-11.8.5 1.85-1.5 3.65-2.1 2.8q.15-1.4 1.4-3.9l1.25-2.2-3.1 4.25q2.45-5 3.55-6.45" fill="#230307" transform="translate(20.45 5.5)"/><path d="M-4-2.3q.8.2.1.55-4.85.95-7.7 3-1.3.95-2.1 2.65l-.6 1.5q0-2.6 2.95-5.5-2.8 1.7-3.4 4.2l-.15 1.8q-.6-2.6 1.55-5Q-10.2-2.65-4-2.3m2.35-.15-.5-.05.05-.45Q.5-5 5.05-3.9q-2.8-.5-6.7 1.45m-13.9 12.2q.25-.4.45-.15.25.25 0 .8l-2.2 3.2q-1.9 3.35-1.8 6.95-.55-3.3 1.45-7.35l2.1-3.45m31.6-.6 2.1 2.45q2.15 2.9 2.55 5.05-1.2-3.05-3.15-5.35L15.8 9.6l.25-.45" fill="#582828" transform="translate(20.45 5.5)"/><path d="m9.2-2.9.15.75q-3.95-1.2-7.65-.1L-1.15-.9q3.3-4 10.35-2" fill="#1a171b" transform="translate(20.45 5.5)"/><path d="M12.8 12.75q2.05-2.65 2.7-5.55l.8.45q-1.1 4-3.7 6.65l.2-1.55" fill="#1e1c26" transform="translate(20.45 5.5)"/></g></defs></svg>

<?xml version="1.0" encoding="UTF-8" standalone="no"?>
<svg xmlns:xlink="http://www.w3.org/1999/xlink" height="92.9px" width="100.7px" xmlns="http://www.w3.org/2000/svg">
  <g transform="matrix(1.0, 0.0, 0.0, 1.0, 38.65, 49.75)">
    <use height="33.0" transform="matrix(1.0, 0.0, 0.0, 1.0, -20.45, -5.5)" width="42.3" xlink:href="#shape0"/>
  </g>
  <defs>
    <g id="shape0" transform="matrix(1.0, 0.0, 0.0, 1.0, 20.45, 5.5)">
      <path d="M9.3 -3.0 Q12.5 -2.05 14.4 -0.1 16.65 2.25 16.65 5.45 L16.35 7.55 16.4 7.6 Q21.85 13.85 21.85 17.75 21.85 21.0 19.85 23.3 L15.75 26.1 14.85 21.95 Q14.55 18.9 13.7 16.15 L12.85 14.0 11.0 16.05 9.05 17.85 9.6 15.25 9.85 12.85 Q9.55 3.75 4.45 2.9 L0.2 1.85 Q-0.4 3.4 -3.85 5.4 L-7.45 7.7 Q-10.2 9.6 -10.2 12.4 L-9.95 13.9 -9.5 15.1 -10.75 15.1 Q-12.1 14.95 -13.15 13.55 -16.9 20.1 -15.8 27.5 L-19.55 23.65 Q-21.55 19.25 -19.0 14.0 L-16.55 9.65 Q-15.9 8.6 -15.9 8.1 L-15.95 7.0 Q-16.5 1.95 -13.3 -0.5 -9.15 -3.8 -3.4 -3.25 3.15 -7.85 9.3 -3.0" fill="#1a171b" fill-rule="evenodd" stroke="none"/>
      <path d="M14.7 16.25 Q10.65 0.55 -0.3 0.55 -4.25 0.55 -8.5 5.05 -12.25 9.0 -14.8 14.7 -16.85 19.25 -17.3 24.5 L-18.9 22.3 Q-20.65 19.1 -18.35 14.3 -15.25 9.65 -15.15 8.05 L-15.3 4.45 Q-15.05 1.8 -12.9 0.1 -8.95 -3.05 -3.3 -2.45 4.95 -8.3 12.2 1.35 13.0 2.4 13.95 4.9 14.9 7.25 15.65 8.1 25.65 19.75 15.95 25.1 16.45 23.0 14.7 16.25" fill="#381719" fill-rule="evenodd" stroke="none"/>
      <path d="M13.65 0.4 Q16.55 3.45 15.35 7.8 14.25 11.75 10.35 15.35 10.85 12.85 10.35 9.7 9.85 6.4 8.5 4.5 7.45 2.95 4.55 2.15 L-0.4 0.8 Q-0.55 2.2 -2.65 3.55 L-8.05 6.9 Q-12.5 10.0 -10.85 14.15 -13.8 14.15 -13.65 8.5 -13.6 4.55 -8.75 1.4 -4.3 -1.5 -1.15 -0.9 1.1 -2.9 5.75 -2.75 10.8 -2.6 13.65 0.4" fill="#ffffff" fill-rule="evenodd" stroke="none"/>
      <path d="M-13.4 11.9 L-13.55 13.1 Q-14.35 11.7 -14.35 9.15 -14.35 6.8 -13.8 5.5 -13.0 3.7 -10.6 1.95 -7.3 -0.5 -2.9 -0.9 -9.8 0.6 -12.65 5.15 -14.2 7.55 -13.4 11.9" fill="#1a171b" fill-rule="evenodd" stroke="none"/>
      <path d="M2.9 -1.55 L8.55 -1.4 Q8.85 -1.25 6.5 -0.65 L9.35 0.3 Q12.35 1.65 13.05 3.95 10.8 2.7 9.4 2.65 13.25 6.55 10.35 15.2 12.0 8.4 8.2 3.0 L-0.55 0.5 Q-0.6 1.15 -1.95 3.0 -7.95 5.9 -10.4 9.25 -11.3 10.5 -10.85 14.15 -11.45 11.8 -11.0 9.45 -10.7 7.95 -7.05 4.75 L-3.45 1.8 -8.25 2.75 Q-7.3 1.05 -4.35 -0.15 L-1.6 -1.0 2.9 -1.55" fill="#dbdfdf" fill-rule="evenodd" stroke="none"/>
      <path d="M7.6 -1.25 L1.75 -0.55 5.25 -0.3 Q9.15 0.3 11.2 2.2 10.0 1.25 5.7 0.65 -0.55 -0.2 5.45 0.95 9.05 1.65 10.4 7.0 11.65 11.8 10.35 15.35 11.45 3.75 4.0 2.05 L-0.4 0.8 Q-0.4 2.3 -3.25 3.9 L-9.15 7.75 -4.05 3.65 Q-0.65 0.6 -2.1 0.65 -4.3 0.75 -6.55 1.85 -5.9 0.8 -3.45 -0.15 L-1.15 -0.9 7.6 -1.25" fill="#aeb9bc" fill-rule="evenodd" stroke="none"/>
      <path d="M19.15 22.45 Q17.45 17.45 14.4 15.7 L13.65 13.15 15.0 10.85 Q19.4 15.45 20.0 18.7 18.7 16.7 17.15 15.6 L15.9 14.85 17.25 16.4 Q18.7 18.75 19.15 22.45" fill="#230307" fill-rule="evenodd" stroke="none"/>
      <path d="M-14.3 10.65 L-13.8 12.5 -15.3 16.15 -17.4 18.95 Q-17.25 17.55 -16.0 15.05 L-14.75 12.85 -17.85 17.1 Q-15.4 12.1 -14.3 10.65" fill="#230307" fill-rule="evenodd" stroke="none"/>
      <path d="M-4.0 -2.3 Q-3.2 -2.1 -3.9 -1.75 -8.75 -0.8 -11.6 1.25 -12.9 2.2 -13.7 3.9 L-14.3 5.4 Q-14.3 2.8 -11.35 -0.1 -14.15 1.6 -14.75 4.1 L-14.9 5.9 Q-15.5 3.3 -13.35 0.9 -10.2 -2.65 -4.0 -2.3" fill="#582828" fill-rule="evenodd" stroke="none"/>
      <path d="M-1.65 -2.45 L-2.15 -2.5 -2.1 -2.95 Q0.5 -5.0 5.05 -3.9 2.25 -4.4 -1.65 -2.45" fill="#582828" fill-rule="evenodd" stroke="none"/>
      <path d="M-15.55 9.75 Q-15.3 9.35 -15.1 9.6 -14.85 9.85 -15.1 10.4 L-17.3 13.6 Q-19.2 16.95 -19.1 20.55 -19.65 17.25 -17.65 13.2 L-15.55 9.75" fill="#582828" fill-rule="evenodd" stroke="none"/>
      <path d="M16.05 9.15 L18.15 11.6 Q20.3 14.5 20.7 16.65 19.5 13.6 17.55 11.3 L15.8 9.6 16.05 9.15" fill="#582828" fill-rule="evenodd" stroke="none"/>
      <path d="M9.2 -2.9 L9.35 -2.15 Q5.4 -3.35 1.7 -2.25 L-1.15 -0.9 Q2.15 -4.9 9.2 -2.9" fill="#1a171b" fill-rule="evenodd" stroke="none"/>
      <path d="M12.8 12.75 Q14.85 10.1 15.5 7.2 L16.3 7.65 Q15.2 11.65 12.6 14.3 L12.8 12.75" fill="#1e1c26" fill-rule="evenodd" stroke="none"/>
    </g>
  </defs>
</svg>
